dist/svg/user-group-warning.svg

<svg width="16" height="16" viewBox="0 0 16 16" fill="rgb(34, 34, 34)" xmlns="http://www.w3.org/2000/svg"><title>user-group-warning</title><path d="M10.9999 6C8.23887 6 5.99987 8.239 5.99987 11C5.99987 13.761 8.23887 16 10.9999 16C13.7609 16 15.9999 13.761 15.9999 11C15.9999 8.239 13.7609 6 10.9999 6ZM11.9999 14H9.99987V13H11.9999V14ZM11.9999 12H9.99987V8H11.9999V12ZM10.9999 5C10.6419 5.002 10.2929 5.035 9.95487 5.097L9.99187 5.091C9.99287 5.06 10.0009 5.031 10.0009 5C9.99887 3.343 8.98987 1.922 7.55387 1.316L7.52787 1.306C8.07587 0.513 8.97887 0 10.0029 0C11.6589 0 13.0019 1.343 13.0019 2.999C13.0019 3 13.0019 3 13.0019 3.001C13.0009 3.826 12.6619 4.572 12.1169 5.108C11.7819 5.041 11.3969 5.002 11.0039 5.001L10.9999 5ZM4.99987 11C4.99987 12.105 5.30087 13.14 5.82387 14.027L5.80887 13.999H1.89587C-1.53713 13.999 0.548867 10.999 1.53187 9.999C2.38587 9.137 3.46087 8.495 4.66587 8.168L4.71487 8.157V7.699C3.67087 7.209 2.96087 6.166 2.96087 4.957C2.96087 3.289 4.31287 1.937 5.98087 1.937C7.64887 1.937 9.00087 3.289 9.00087 4.957C9.00087 5.098 8.99087 5.237 8.97287 5.373L8.97487 5.357C6.63987 6.211 5.00287 8.414 5.00087 10.998L4.99987 11Z" fill="rgb(34, 34, 34)" fill-opacity="1.00"/></svg>

<!-- Generated by Trend Micro Style Portal -->
<svg version="1.1" xmlns="http://www.w3.org/2000/svg" width="16" height="16" viewBox="0 0 16 16">
  <title>user-group-warning</title>
  <path fill="rgb(34,34,34)" d="M11 6c-2.761 0-5 2.239-5 5s2.239 5 5 5c2.761 0 5-2.239 5-5v0c0-2.761-2.239-5-5-5v0zM12 14h-2v-1h2zM12 12h-2v-4h2zM11 5c-0.358 0.002-0.707 0.035-1.045 0.097l0.037-0.006c0.001-0.031 0.009-0.060 0.009-0.091-0.002-1.657-1.011-3.078-2.447-3.684l-0.026-0.010c0.548-0.793 1.451-1.306 2.475-1.306 1.656 0 2.999 1.343 2.999 2.999 0 0.001 0 0.001 0 0.002v-0c-0.001 0.825-0.34 1.571-0.885 2.107l-0 0c-0.335-0.067-0.72-0.106-1.113-0.107h-0.001zM5 11c0 0 0 0 0 0 0 1.105 0.301 2.14 0.824 3.027l-0.015-0.028h-3.913c-3.433 0-1.347-3-0.364-4 0.854-0.862 1.929-1.504 3.134-1.831l0.049-0.011v-0.458c-1.044-0.49-1.754-1.533-1.754-2.742 0-1.668 1.352-3.020 3.020-3.020s3.020 1.352 3.020 3.020c0 0.141-0.010 0.28-0.028 0.416l0.002-0.016c-2.335 0.854-3.972 3.057-3.974 5.641v0z"></path>
</svg>
